static/assets/images/exchanges/swaap.svg

<svg width="231" height="256" viewBox="0 0 231 256" fill="none" xmlns="http://www.w3.org/2000/svg">
<path d="M56.6327 36.5714C47.6908 36.5714 38.7488 38.0641 31.2972 41.7959C21.9646 46.9239 14.1948 54.4906 8.81487 63.6906C3.43496 72.8905 0.646303 83.3794 0.745708 94.0408H50.6714C53.652 94.0408 56.6327 91.8017 56.6327 88.8163V36.5714ZM90.91 0C84.9487 0 79.7326 1.49271 76.0068 3.73178C70.0465 6.73039 65.0201 11.307 61.4733 16.9647C57.9264 22.6225 55.9946 29.1453 55.8875 35.8251H87.1842C89.4197 35.8251 90.91 34.3324 90.91 32.8396V0Z" fill="#E2BCFF"/>
<path d="M90.91 82.0991C85.6939 82.0991 80.4778 82.0991 76.0068 79.1137C70.0733 75.9554 65.1249 71.2184 61.7066 65.4242C58.2882 59.63 56.5325 53.0035 56.6327 46.2741H87.9294C89.4197 46.2741 90.91 47.7668 90.91 50.0058V82.8455V82.0991ZM105.813 256C99.1068 256 93.1455 254.507 87.1842 252.268C73.7713 244.805 64.8294 229.878 64.8294 214.204H102.087C103.578 214.204 105.813 215.697 105.813 217.936V256Z" fill="#E2BCFF"/>
<path d="M105.813 223.16C88.6745 223.16 73.0262 219.429 58.8681 211.965C41.0367 202.46 26.1319 188.263 15.7588 170.903C5.38566 153.543 -0.0626764 133.678 0.000543989 113.446H94.6358C100.597 113.446 105.813 117.924 105.813 124.641V223.16ZM231 112.7H134.129C128.168 112.7 122.952 117.924 122.952 124.641V226.146C140.091 226.146 156.484 222.414 171.387 214.95C207.155 196.292 231 157.481 231 113.446V112.7ZM188.526 145.539C187.481 145.545 186.447 145.33 185.491 144.909C184.535 144.488 183.677 143.871 182.975 143.096C182.272 142.322 181.74 141.409 181.412 140.415C181.085 139.422 180.97 138.37 181.074 137.329C181.074 132.851 184.055 129.12 188.526 129.12C192.997 129.12 195.977 132.851 195.977 136.583C195.977 141.808 192.997 145.539 188.526 145.539ZM157.229 71.6501L172.132 87.3236C172.132 87.3236 179.584 94.7872 187.781 94.7872C196.723 94.7872 202.684 87.3236 202.684 87.3236L218.332 71.6501C218.332 71.6501 212.371 64.1866 203.429 64.1866C194.487 64.1866 188.526 71.6501 188.526 71.6501C188.526 71.6501 182.565 64.9329 172.132 64.9329C162.445 64.9329 157.229 71.6501 157.229 71.6501Z" fill="#E2BCFF"/>
</svg>

<svg xmlns="http://www.w3.org/2000/svg" fill="none" viewBox="0 0 231 256"><path fill="#E2BCFF" d="M56.633 36.571c-8.942 0-17.884 1.493-25.336 5.225A58.9 58.9 0 0 0 8.815 63.69a59.04 59.04 0 0 0-8.07 30.35h49.926c2.981 0 5.962-2.24 5.962-5.225zM90.91 0c-5.961 0-11.177 1.493-14.903 3.732a36.53 36.53 0 0 0-14.534 13.233 36.6 36.6 0 0 0-5.585 18.86h31.296c2.236 0 3.726-1.493 3.726-2.985z"/><path fill="#E2BCFF" d="M90.91 82.1c-5.216 0-10.432 0-14.903-2.986a36.54 36.54 0 0 1-14.3-13.69 36.6 36.6 0 0 1-5.074-19.15h31.296c1.49 0 2.981 1.493 2.981 3.732v32.84zM105.813 256c-6.706 0-12.668-1.493-18.629-3.732-13.413-7.463-22.355-22.39-22.355-38.064h37.258c1.491 0 3.726 1.493 3.726 3.732z"/><path fill="#E2BCFF" d="M105.813 223.16q-25.708 0-46.945-11.195a111.1 111.1 0 0 1-43.11-41.062A111.34 111.34 0 0 1 .002 113.446h94.635c5.961 0 11.177 4.478 11.177 11.195zM231 112.7h-96.871c-5.961 0-11.177 5.224-11.177 11.941v101.505c17.139 0 33.532-3.732 48.435-11.196C207.155 196.292 231 157.481 231 113.446zm-42.474 32.839a7.44 7.44 0 0 1-5.551-2.443 7.47 7.47 0 0 1-1.901-5.767c0-4.478 2.981-8.209 7.452-8.209s7.451 3.731 7.451 7.463c0 5.225-2.98 8.956-7.451 8.956M157.229 71.65l14.903 15.674s7.452 7.463 15.649 7.463c8.942 0 14.903-7.463 14.903-7.463l15.648-15.674s-5.961-7.463-14.903-7.463-14.903 7.463-14.903 7.463-5.961-6.717-16.394-6.717c-9.687 0-14.903 6.717-14.903 6.717"/></svg>
